X: 50
T:Dayagim
O:Israeli
S:Deborah Jones, Vancouver International Folk Dance Music Book
I:choreographer S. Hermon, 1969
D: Israeli Folk Dance Festival featuring Geula Zohar (Tikva 80)
F: http://www.youtube.com/watch?v=FwDNoEM5Ku4
Q:1/4=132
L:1/8
M:4/4
K:Dm
 "F" F2 c2 B c2 A           |"Gm" GB AG "Dm" FG "Am" Ac| "Dm" fedc d4           |\
 "Dm" DD AA "Gm" GB "Dm" A>G| FG AF "Am" GE "Dm" F>E   | DD AA "Gm" GB "Dm" A2  |\
 d A2 c "Gm" G/A/G G2       |
 DD GA Bc d>c               |"C7" Bc BG "F" A F2 G     | AB c>A "Gm" BG "Dm" A>G|\
 FG "Am" ED "Dm" D2 D z     |
 "F" F2 c2 B c2 A           |"Gm" GB AG "F" A F2 C     | F2 c2 "Gm" Bc/B/ AG    |\
 G4-GD GA                   |
 B>c d2-dd cB               | "F" A>B c2-cc BA         | "Gm" G3 A BB AG        |\
 "Dm" A3 F G3 E             |



